X:1
T:G Major                      Jeremiah Ingalls, 1805
T:Anonymous author, Apparently first published 1805 886. 886.
T:Love Divine
T:Transcribed from Ingalls' Christian Harmony, 1805.
%%score [ 1 2 3 ]
L:1/8
Q:1/4=130
M:6/8
K:G
V:1 treble nm="Tr." snm="Tr."
V:2 treble-8 nm="T." snm="T."
V:3 bass nm="B." snm="B."
V:1
 A3 | B2 B B2 G | B2 d GAB | d2 d d2 B | G2 G G2 A | B2 B B2 G | B3- B2 c | d2 d d2 c | B6 | %9
w: 1.~To|him who did sal-|va- tion bring, * Wake|eve- ry tune- ful|power and sing A|song of swee- test|praise,~ _ A|song of swee- test|praise.|
w: 2.~Sal-|va- tion is the|no- blest song, * O|may it dwell on|eve- ry tongue, And|all re- peat, A-|men,~ _ And|all re- peat, A-|men.|
 z2 z B3 |: c2 B A2 B | cde B3 | (d2 c) B2 G | d2 d G2 G | G2 A B2 B | B2 B B3- | B2 c d2 d |1 %17
w: His|grace dif- fu- ses|as * the rain,|Crowns * na- ture's|flo- wery hills and|plains, And spreads a|thou- sand ways,~|_ And spreads a|
w: The|Lord has come from|heav'n * to earth,|To * give his|peo- ple se- cond|birth, And make us|his a- gain,~|_ And make us|
 d2 c B3- | B3 B3 :|2 d2 c B3- | B3 |] %21
w: thou- sand ways.~|_ His|thou- sand ways.||
w: his a- gain.~|_ The|his a- gain.||
V:2
 D3 | G2 G G>AB | d2 B BAG | A2 B A2 G | BAG E2 D | G2 G GAB | (d3 cB)G | A2 B AGA | G6 | %9
w: 3.~We|feel re- demp- * tion|dra- wing near, * We|soon in glo- ry|shall * ap- pear, And|be for- ev- * er|blest,~ _ _ And|be for- ev- * er|blest.|
w: 4.~By|faith we see * him|co- ming down, * With|an- gels ho- vering|all * a- round, He|smiles up- on * his|saints,~ _ _ He|smile up- on * his|saints.|
w: 5.~His|lo- ving mil- * lions|rise and sing, * All|glo- ry, glo- ry|to * our King, The|grand As- size * is|come,~ _ _ The|grand As- size * is|come:|
 z2 z d3 |: e2 e e2 ^d | e^de g3 | (g2 e) d2 B | AGA BAG | E2 D G2 G | GAB (d3 | dB)G A2 B |1 %17
w: The|pro- mise ne- ver|can * de- lay,|Our * Je- sus|now * is on * the|way, To give his|peo- * ple rest,~|_ _ To give his|
w: He|cries a- loud in|mel- * ting strains,|"I * come to|save * you from * yur|pains, And end your|sore * com- plaints,~|_ _ To end your|
w: The|ev- er- las- ting|doors * fly wide,|The * church all|glo- * rious as * a|bride, And Je- sus|takes * her home,~|_ _ And Je- sus|
 AGA G3- | G3 d3 :|2 AGA G3- | G3 |] %21
w: peo- * ple rest.~|_ The|peo- * ple rest.||
w: sore * com- plaints.~|_ He|sore * com- plaints."||
w: takes * her home.~|_ The|takes * her home.||
V:3
 D,3 | G,2 G, G,2 G, | G,2 G, E,2 E, | D,2 D, D,2 E, | E,2 E, C,2 D, | G,2 G, G,2 G, | %6
w: 6.~In|all the heav'ns there's|not a tear, Nor|in e- ter- ni-|ty a fear; But|plea- sures yet un-|
w: 7.~The|days of heav'n will|ne- ver end, All|glo- ry to the|sin- ner's friend; Roll|on ye hap- py|
 G,3- G,2 E, | D,2 D, D,2 D, | G,,6 | z2 z B,3 |: A,2 A, A,2 B, | A,B,A, G,3 | (G,2 A,) B,2 G, | %13
w: known,~ _ But|plea- sures yet un-|known.|From|heav'n to heav'n we|sound * the bliss,|O! * what a|
w: scenes,~ _ Roll|on ye hap- py|scenes.|Ye|wing- ed se- raphs|help * us praise|The * an- cient|
 D,2 D, E,2 E, | C,2 D, G,2 G, | G,2 G, G,3- | G,2 E, D,2 D, |1 D,2 D, G,,3- | G,,3 B,3 :|2 %19
w: glo- rious heav'n is|this, For- ev- er|round the throne,~|_ For- ev- er|round the throne.~|_ From|
w: of e- ter- nal|days, Our Je- sus|ev- er reigns.~|_ Our Je- sus|ev- er reigns.~|_ Ye|
 D,2 D, G,,3- | G,,3 |] %21
w: round the throne.||
w: ev- er reigns.||

